client/public/assets/icons/standard/scan_card.svg

<?xml version="1.0"?><svg xmlns="http://www.w3.org/2000/svg" width="100" height="100" viewBox="0 0 100 100"><path fill="#fff" d="m74 30h-48c-3.3 0-6 2.7-6 6v28c0 3.3 2.7 6 6 6h48c3.3 0 6-2.7 6-6v-28c0-3.3-2.7-6-6-6z m-49 23c-1.7 0-3-1.3-3-3s1.3-3 3-3 3 1.3 3 3-1.3 3-3 3z m47 9c0 1.1-0.9 2-2 2h-38c-1.1 0-2-0.9-2-2v-24c0-1.1 0.9-2 2-2h38c1.1 0 2 0.9 2 2v24z m-8-20h-26c-1.1 0-2 0.9-2 2v12c0 1.1 0.9 2 2 2h26c1.1 0 2-0.9 2-2v-12c0-1.1-0.9-2-2-2z"></path></svg>

<?xml version="1.0" encoding="utf-8"?>
<!-- Generator: Adobe Illustrator 17.1.0, SVG Export Plug-In . SVG Version: 6.00 Build 0)  -->
<!DOCTYPE svg PUBLIC "-//W3C//DTD SVG 1.1//EN" "http://www.w3.org/Graphics/SVG/1.1/DTD/svg11.dtd">
<svg version="1.1" id="Layer_1" xmlns="http://www.w3.org/2000/svg" xmlns:xlink="http://www.w3.org/1999/xlink" x="0px" y="0px" width="100" height="100"
	 viewBox="0 0 100 100" style="enable-background:new 0 0 100 100;" xml:space="preserve">

<g>
	<g>
		<path fill="#FFFFFF" d="M74,30H26c-3.3,0-6,2.7-6,6v28c0,3.3,2.7,6,6,6h48c3.3,0,6-2.7,6-6V36C80,32.7,77.3,30,74,30z M25,53
			c-1.7,0-3-1.3-3-3s1.3-3,3-3s3,1.3,3,3S26.7,53,25,53z M72,62c0,1.1-0.9,2-2,2H32c-1.1,0-2-0.9-2-2V38c0-1.1,0.9-2,2-2h38
			c1.1,0,2,0.9,2,2V62z"/>
	</g>
	<g>
		<path fill="#FFFFFF" d="M64,42H38c-1.1,0-2,0.9-2,2v12c0,1.1,0.9,2,2,2h26c1.1,0,2-0.9,2-2V44C66,42.9,65.1,42,64,42z"/>
	</g>
</g>
</svg>
